imgs/mail.svg

<svg width="190" height="189" viewBox="0 0 190 189" fill="none" xmlns="http://www.w3.org/2000/svg">
<path d="M101.334 189H86.9296C83.1298 188.131 79.2312 187.821 75.4117 187.036C40.5422 179.876 12.0732 152.611 3.10662 118.235L0.125981 102.191C0.417136 97.1432 -0.268805 91.6704 0.125981 86.6764C6.55606 4.99516 109.403 -30.3037 164.885 31.0757C217.638 89.435 179.087 183.927 101.339 189H101.334ZM43.2514 51.6835C38.1192 52.7593 34.3293 56.9145 33.7371 62.1207V126.757C34.3589 132.279 38.6966 136.755 44.2483 137.303C78.6736 136.962 113.252 137.925 147.588 136.819C152.119 135.181 155.262 131.272 155.647 126.407V62.476C155.218 56.796 150.781 52.1376 145.121 51.5799L43.2514 51.6885V51.6835Z" fill="#6FE9B8"/>
<path d="M145.664 66.7347V126.392C145.664 126.495 144.775 127.285 144.548 127.492H44.8255C44.5985 127.285 43.7102 126.495 43.7102 126.392V66.7347C44.485 66.7347 45.1265 67.4256 45.7285 67.8549C60.7798 78.6819 74.8391 92.307 89.9249 103.08C92.6735 105.044 94.1244 106.623 97.6281 104.575L139.959 70.8108L145.669 66.7297L145.664 66.7347Z" fill="#6FE9B8"/>
<path d="M136.061 61.1929L94.5588 93.9897L53.3135 61.1929H136.061Z" fill="#6FE9B8"/>
</svg>

<?xml version="1.0" encoding="UTF-8"?>
<svg id="_圖層_1" data-name="圖層_1" xmlns="http://www.w3.org/2000/svg" version="1.1" viewBox="0 0 190 189">
  <!-- Generator: Adobe Illustrator 29.5.1, SVG Export Plug-In . SVG Version: 2.1.0 Build 141)  -->
  <defs>
    <style>
      .st0 {
        fill: #299ea7;
      }
    </style>
  </defs>
  <path class="st0" d="M101.33,189h-14.4c-3.8-.87-7.7-1.18-11.52-1.96-34.87-7.16-63.34-34.43-72.31-68.8L.13,102.19c.29-5.05-.39-10.52,0-15.51C6.56,5,109.4-30.3,164.88,31.08c52.75,58.36,14.2,152.85-63.55,157.92h0ZM43.25,51.68c-5.13,1.08-8.92,5.23-9.51,10.44v64.64c.62,5.52,4.96,10,10.51,10.55,34.43-.34,69,.62,103.34-.48,4.53-1.64,7.67-5.55,8.06-10.41v-63.93c-.43-5.68-4.87-10.34-10.53-10.9l-101.87.11h0Z"/>
  <path class="st0" d="M145.66,66.73v59.66c0,.1-.89.89-1.12,1.1H44.83c-.23-.21-1.12-1-1.12-1.1v-59.66c.77,0,1.42.69,2.02,1.12,15.05,10.83,29.11,24.45,44.2,35.23,2.75,1.96,4.2,3.54,7.7,1.49l42.33-33.76,5.71-4.08h0Z"/>
  <path class="st0" d="M136.06,61.19l-41.5,32.8-41.25-32.8h82.75Z"/>
</svg>
